X: 102
T: A Birthday
R: polka
M: 2/4
K: Gmajor
A3c|BG GB|Ad cA|BG GB|
A3c|BG GB|de/d/ cA|1 AG GB:|2 BD G2||

